X:1
T:Title
%%score { ( 1 3 ) | ( 2 4 ) }
L:1/8
M:4/4
K:Ab
V:1 treble nm="Grand Piano"
V:3 treble 
V:2 bass 
V:4 bass 
V:1
 z4 z2[Q:1/4=100] [Ec][DB] | [CA]2 [CE]2 [DF][FA][EG]F | E2 D2 C2 C[B,D] | %3
 [CE][CF][B,DG][CEA] [Ec]2 [Ec]2 | B6 cB | [CA]2 [CE]2 [DF][FA][EG]F | E2 D2 C2 C[B,D] | %7
 [CE][CF][B,DG][CEA] [EAc]2 [DGB]2 |[M:3/4] [CEA]6 |[M:1/4] [CA][DB] |[M:4/4] z [Ae]3 z [EA]3 | %11
 [A,DF][A,FA][A,EG][A,DF] [A,CE]2 [A,EA]B | z e3 z [EA]3 | [EGB][EGB][=DAB][DAc] [EGB]2 [EA][DGB] | %14
 z [Ae]3 z [EA]3 | [A,DF][A,FA][A,EG][A,DF][K:bass] [A,CE]2 [E,A,C][E,B,D] | %16
 [A,CE][A,CF][A,DG][CEA] [EAc]2 [DGB]2 |[M:3/4] [CEA]6 |] %18
V:2
 z4 z2 [A,,A,][A,,A,] | [A,,A,]2 [A,,A,]2 [D,A,][D,A,][D,A,][D,A,D] | %2
 [E,A,C]2 [E,B,]2 [A,,E,A,]2 [A,,E,A,][A,,E,] | [A,,A,][A,,A,]A,,A,, [A,,A,]2 [A,,A,]2 | %4
 [E,G,E]6 [E,G,E][E,G,D] | [A,,A,]2 [A,,A,]2 [D,A,][D,A,][D,A,][D,A,D] | %6
 [E,A,C]2 [E,B,]2 [A,,E,A,]2 [A,,E,A,][A,,E,] | [A,,A,][A,,A,]A,,A,, E,2 E,2 |[M:3/4] A,,6 | %9
[M:1/4] [A,,A,][A,,A,] |[M:4/4] [A,,A,][A,,C]A,,A,, A,,A,,A,,A,, | D,D,D,D, A,,2 C,[E,G,E] | %12
 z A3[K:bass] z4 | E,E,B,,B,, E,D,C,B,, | A,,A,,A,,A,, A,,A,,A,,A,, | D,D,D,D, A,,2 A,,A,, | %16
 A,,A,,A,,A,, E,2 E,2 |[M:3/4] A,,6 |] %18
V:3
 x8 | x8 | x8 | x8 | x8 | x8 | x8 | x8 |[M:3/4] x6 |[M:1/4] x2 |[M:4/4] .[Ec]2 CC [EAc]CCC | x8 | %12
 .c2 CC [EAc]CCC | x8 | [CAc]CCC [EAc]CCC | x4[K:bass] x4 | x8 |[M:3/4] x6 |] %18
V:4
 x8 | x8 | x8 | x8 | x8 | x8 | x8 | x8 |[M:3/4] x6 |[M:1/4] x2 |[M:4/4] x8 | x8 | %12
 [A,E][A,C][K:bass]A,A, A,,A,,A,,A,, | x8 | x8 | x8 | x8 |[M:3/4] x6 |] %18

